!!!COM: Hart, Catherine
!!!ODT: 1861///
!!!OPC: Canada, Nova Scotia, Tangier
!!!OTL: Song of the Tangier Gold Mines
!!!ONM: 145.
**kern
*clefG2
*k[b-]
*F:
*M6/8
*MM80
{4c
8c
=1
4f
8f
8f
8e
8d
=2
4c
8c
4c}
{8c
=3
4f
8f
4g
8e
=4
4.f
4r}
{8c
=5
4f
8f
8f
8e
8d
=6
4c
8c
4c}
{16c
16c
=7
4f
8f
4g
8e
=8
4.f
4r}
{8f
=9
4a
8a
4f
8a
=10
8b-
4b-
4r}
{8d
=11
4c
8c
4b-
8d
=12
4.c}
{4c
8c
=13
4d
8d
4f
8f
=14
8c
4c}
{4A
8B-
=15
4c
8c
4f
8f
=16
4.f}
==
*-
!!!CNT: Folksongs of Maritime Canada
!!!MRD: 1928///-1932///
!!!OCL: Helen Creighton
!!!YOR: Songs and Ballads from Nova Scotia
!!!PPR: J.M. Dent & Sons, Limited
!!!PPP: Toronto, Canada
!!!PDT: 1932///
!!!reprint: Dover Publications, 1992: ISBN 0-486-21703-5
!!!ENC1: Craig Stuart Sapp (music and bibliographic data)                       
!!!ENC2: Marcus Pearce (phrase markings and key designations)                   
!!!ENC3: Darrell Conklin (phrase markings and key designations)   
!!!END: 2002/04/10/
!!!EEV: 2004/06/05
!!!MPN: Mr. Hiram O. Hilshie (nephew)
!!!PPG: 316
!!!EFL: 147/152
!!!ARE: Canada; Nova Scotia
!!!verses: 13
!!!VTS: 1285007045
